X: 10
T:Flop Eared Mule
M:4/4
L:1/4
C:
S:AABBAA form
R:Keys of D and A
K:D
|:ffdd|AFDD|EEFE|DFAA|ffdd|AFDD|EEFE|D4:||:K:A
 eeee|eecA|BBcB|Acee|!eeee|eecA|BBcB|AAA2:|
